X:17002
T:Quickstep from Louth
T:Louth Quickstep
R:Quickstep
C:Trad. 1823
O:England,Lincolnshire
Z:Paul Hardy's Session Tunebook 2015 (see www.paulhardy.net). Creative Commons cc by-nc-sa licenced.
M:2/2
L:1/4
Q:1/2=100
K:D
"D"dd fd|"A"ee"Em"ge|"D"dd fd|"A"e/2d/2e/2f/2 e2|"D"dd fd|"A"ee"Em"ge|"G"g/2f/2e/2d/2 "A"c/2d/2e/2c/2|"D"d2 dz:|
|:"D"ff af|af-fd|"A"ee"Em"ge|ge-ec|"D"dd fd|"A"ee"Em"ge|"G"g/2f/2e/2d/2 "A"c/2d/2e/2f/2|"D"d2 dz:|
|:"D"dd"A"cc|"G"BB"D"AA|"G"Bd"A"ce|"D"d/2c/2d/2e/2 dA|dd"A"cc|"G"BB"D"AA|"G"Bd"A"ce|"D"d2 dz:|
|:"D"a2 fa|"G"g2"Em"eg|"D"fd"A"cd|e/2d/2e/2f/2 ee|"D"a2 fa|"G"g2"Em"eg|"D"fd"A"ec|"D"d2 dz:|

